!!!!SEGMENT: pl-kk--kk-i-213_anonim--mittit-ad-virginem.krn
!!!cenid: 17xx:2036
!!!COM: Anonim
!!!COM-rismid: pe30004985
!!!CDT:
!!!CNT:
!!!OTL: Mittit ad virginem
!!!PDT:
!!!AGN: Sacred
!!!SMS-siglum: PL-Kk
!!!SMS-shelfmark: Kk.I.213
!!!SMS-shelfwork: W
!!!SMS-variant:
!!!SMS-altvar:
!!!NIFC-rismid: 1001143688
!!!URL-scan: http://repozytorium.nifc.pl/skany/pl-kk-nut--i-213
!!!ONB-nifc:
!!!AIN: 1 alto 1 empty 1 organ 1 tenor 1 vox
!!!key:
**kern	**fba	**kern	**text	**kern	**text	**kern	**text	**kern	**text
*part5	*	*part4	*part4	*part3	*part3	*part2	*part2	*part1	*part1
*staff5	*	*staff4	*staff4	*staff3	*staff3	*staff2	*staff2	*staff1	*staff1
*Iorgan	*	*Iempty	*	*Itenor	*	*Ialto	*	*Ivox	*
*I"Organo	*	*I"Baſſo	*	*I"Tenore.	*	*I"Alto	*	*I"Canto:	*
*I'org	*	*I'B	*	*I'T	*	*I'A	*	*I'S	*
*clefF4	*	*clefF4	*	*clefC4	*	*clefC3	*	*clefC1	*
*k[b-]	*	*k[b-]	*	*k[b-]	*	*k[b-]	*	*k[b-]	*
*F:	*	*F:	*	*	*	*F:	*	*F:	*
*M2/2	*	*M2/2	*	*M2/2	*	*M2/2	*	*M2/2	*
*met(c|)	*	*met(c|)	*	*met(c|)	*	*met(c|)	*	*met(c|)	*
*>[A,A,B,B,C,C,D,D]	*	*>[A,A,B,B,C,C,D,D]	*	*>[A,A,B,B,C,C,D,D]	*	*>[A,A,B,B,C,C,D,D]	*	*>[A,A,B,B,C,C,D,D]	*
=1	=1	=1	=1	=1	=1	=1	=1	=1	=1
*>A	*	*>A	*	*>A	*	*>A	*	*>A	*
*all\middle or right	*	*all\middle or right	*	*all\middle or right	*	*all\middle or right	*	*all\middle or right	*
!LO:TX:a:t=T.	!	!	!	!	!	!	!	!	!
!LO:TX:t=P:problem=inną ręką dopisany pomocniczo tekst pod pięciolinią [nie wpisujemy - konsultacja z J.I.]	!	!	!	!	!	!	!	!	!
!LO:TX:t=P:problem=znaki BB- B-	!	!	!	!	!	!	!	!	!
!LO:TX:t=P:problem=mixed beam	!	!LO:TX:t=P:problem=znaki BB- B-	!	!	!	!	!	!	!
8FF/L	.	8r	.	8r	.	8r	.	8r	.
8F\	.	8F\	Mit-	8c\	Mit-	8a\	Mit-	8cc\	Mit-
8F\	.	8F\	-tit	8c\	-tit	8a\	-tit	8ff\	-tit
8F\J	.	8F\	ad	8c\	ad	8a\	ad	8ff\	ad
4E\	6	8.E\	Vir-	8.c\	Vir-	8.g\	Vir-	8.een\	Vir-
.	.	16E\	-gi-	16c\	-gi-	16g\	-gi-	16ee\	-gi-
4E\	.	4E\	-nem	4c\	-nem	4g\	-nem	4ee\	-nem
=2	=2	=2	=2	=2	=2	=2	=2	=2	=2
8r	.	8r	.	8r	.	8r	.	8r	.
!LO:TX:t=P:problem=mixed beam	!	!	!	!	!	!	!	!	!
8D\L	7	8D\	n(on)	8Bn\	non	8f\	non	8dd\	non
8G\	3	8G\	q(ve)m-	8B\	qvem-	8g\	qvem-	8dd\	qvem-
!	!	!LO:TX:t=P:problem=kreska taktowa	!	!	!	!	!	!	!
8GG/J	.	8GG/	-vis	8B\	-vis	8g\	-vis	8dd\	-vis
4C/	.	8.C/	An-	8.c\	An-	8.g\	An-	8.een\	An-
.	.	16C/	-ge-	16c\	-ge-	16g\	-ge-	16ee\	-ge-
4C/	.	4C/	-lu(m)	4c\	-lu(m)	4g\	-lu(m)	4ee\	-lu(m)
=3	=3	=3	=3	=3	=3	=3	=3	=3	=3
8r	.	8r	.	8r	.	8r	.	8r	.
8AA/L	6	8AA/	sed	8f\	sed	8a\	sed	8cc\	sed
8AA/	.	8AA/	for-	8f\	for-	8a\	for-	8ff\	for-
8AA/J	.	8AA/	-ti-	8f\	-ti-	8a\	-ti-	8cc\	-ti-
4BB-/	5_	8.BB-/	-tu-	8.f\	-tu-	8.f\	-tu-	8.dd\	-tu-
.	.	16BB-/	-di-	16f\	-di-	16f\	-di-	16dd\	-di-
4BB-/	x	4BB-/	-ne(m)	4f\	-nem	4f\	-ne(m)	4dd\	-ne(m)
!	!	!LO:LB:g=original	!	!LO:LB:g=original	!	!	!	!LO:LB:g=original	!
=4	=4	=4	=4	=4	=4	=4	=4	=4	=4
8r	.	8r	.	8r	.	8r	.	8r	.
!	!	!LO:TX:t=P:problem=♮ przed 8r	!	!	!	!LO:LB:g=original	!	!	!
8BBn/L	.	8BBn/	sed	8Bn\	su-	8g\	su-	8dd\	Su-
8BB/	.	8BB/	for-	8B\	-um	8g\	-um	8dd\	-um
8BB/J	.	8BB/	-ti-	8B\	Ar-	8g\	Ar-	8dd\	Ar-
4C/	5	8.C/	-tu-	8.c\	-chan-	8.g\	-chan-	8.ee\	-chan-
.	.	16C/	-di-	16c\	-ge-	16g\	-ge-	16ee\	-ge-
8C/L	6	8C/	-nem	8c\	-[lu]m	8g\	-lu(m)	8ee\	-lum
!	!	!LO:SIC:v:s=8AA	!	!	!	!	!	!	!
8AA/J	.	8GG/	su-	8f\	a-	8a\	A-	8cc\	a-
=5	=5	=5	=5	=5	=5	=5	=5	=5	=5
!	!	!LO:TX:t=P:problem=poprawiony łuk	!	!	!	!	!	!	!
8BB-/L	.	(8BB-/L	-um	8d\L	ma-	8f\L	ma-	4.dd\	-ma-
(8C/	.	8C/	.	8c\	.	8e\	.	.	.
8D/)	6	8D/	.	8B-\	.	8f\	.	.	.
8E/J	6	8E/J)	.	8c\J	.	8g\J	.	8cc\	.
8F\L	6_	(8F\L	Ar-	8f\L	.	4a\	.	8dd\L	.
8G\	.	8G\	.	8e\J	.	.	.	8ee\	.
8A\	.	8A\)	.	8f\	-tor	8a\	-tor	8ff\	.
8F\J	x	8F\J	.	8f\	a-	8a\	a-	8cc\J	.
=6	=6	=6	=6	=6	=6	=6	=6	=6	=6
*	*	*	*	*	*	*2\right	*	*2\right	*
8B-\L	.	8B-\L	-chan-	4f\	-ma-	2f\	-ma-	2dd\	.
8A\	.	(8A\	.	.	.	.	.	.	.
8B-\	6	8B-\	.	4B-\	.	.	.	.	.
8G\J	.	8G\J)	.	.	.	.	.	.	.
(8c\L	.	(8c\L	-ge-	4e\	.	2g\	.	2een\	.
8B-\)	.	8B-\)	.	.	.	.	.	.	.
(8c\	6	(8c\	-lum	4c\	.	.	.	.	.
8A\J)	.	8A\J)	.	.	.	.	.	.	.
=7	=7	=7	=7	=7	=7	=7	=7	=7	=7
(8d\L	.	8d\L	a-	4d\	.	4a\	-tor	4ff\	.
8c\	.	8c\	.	.	.	.	.	.	.
8d\)	.	8d\	.	8d\	-tor	8a\	a-	8ff\	-tor
8A\J	.	8A\J	.	16B-\LL	a-	8a\	-ma-	8ff\	a-
.	.	.	.	16c\JJ	.	.	.	.	.
!LO:TX:t=P:problem=mixed beam	!	!	!	!	!	!	!	!	!
8B-\L	6	8B-\	-ma-	8d\	-ma-	8b-\	-tor	8ff\	-ma-
8G\	.	8G\	-tor	8d\	-tor	8b-\	ho-	8gg\	-tor
!	!	!	!	!LO:LB:g=original	!	!	!	!	!
8c\	4	8.c\	ho-	8.c\	ho-	8.g\	.	8.ee\	ho-
8C/J	3	.	.	.	.	.	.	.	.
.	.	16c\	-mi-	16c\	-mi-	16g\	-mi-	16ee\	-mi-
!LO:LB:g=original	!	!	!	!	!	!	!	!LO:LB:g=original	!
=8	=8	=8	=8	=8	=8	=8	=8	=8	=8
4F\	.	4F\	-nis	4c\	-nis	4a\	-nis	4ff\	-nis
8r	.	8r	.	8r	.	8r	.	8r	.
!	!	!LO:LB:g=original	!	!	!	!LO:LB:g=original	!	!	!
8AA/	6	8AA/	a-	8f\	A-	8a\	a-	8cc\	a-
2BB-/	5	4BB-/	-ma-	4d\	-ma-	4f\	-ma-	4dd\	-ma-
.	6	4BB-/	-tor	4f\	-tor	4f\	-tor	4dd\	-tor
=9	=9	=9	=9	=9	=9	=9	=9	=9	=9
4.C/	4	4.C/	ho-	4.e\	ho-	4.g\	ho-	4.cc\	ho-
.	3	.	.	.	.	.	.	.	.
8C/	.	8C/	-mi-	8e\	-mi-	8g\	-mi-	8cc\	-mi-
*	*	*2\right	*	*2\right	*	*	*	*	*
!	!	!	!	!	!	!LO:TX:t=P:problem=podwójna kreska taktowa, brak repetycji	!	!LO:TX:t=P:problem=podwójna kreska taktowa, brak repetycji	!
2FF/	.	2F\	-nis	2f\	-nis	2a\	-nis	2cc\	-nis
!LO:LB:g=original	!	!LO:LB:g=original	!	!LO:LB:g=original	!	!LO:LB:g=original	!	!LO:LB:g=original	!
=10:|!	=10:|!	=10:|!	=10:|!	=10:|!	=10:|!	=10:|!	=10:|!	=10:|!	=10:|!
*M2/2	*	*M2/2	*	*M2/2	*	*M2/2	*	*M2/2	*
*met(c|)	*	*met(c|)	*	*met(c|)	*	*met(c|)	*	*met(c|)	*
*>B	*	*>B	*	*>B	*	*>B	*	*>B	*
!LO:TX:b:t=Naturam.	!	!	!	!	!	!	!	!	!
4D\	.	8r	.	8r	.	8r	.	8r	.
.	.	8D\	Na-	8f\	Na-	8a\	Na-	8dd\	Na-
8F\L	6	8F\	-tu-	8f\	-tu-	8a\	-tu-	8dd\	-tu-
8G\J	.	8G\	-ram	8d\	-ram	8b-\	-ram	8dd\	-ram
4A\	#	8.A\	Su-	8.e\	Su-	8.a\	Su-	8.cc#X\	Su-
.	.	16A\	-pe-	16e\	-pe-	16a\	-pe-	16cc#\	-pe-
8A\L	.	8A\	-ret	8e\	-ret	8a\	-ret	8cc#\	-ret
8F\J	6	8F\	na-	8f\	na-	8a\	na-	8dd\	na-
=11	=11	=11	=11	=11	=11	=11	=11	=11	=11
!LO:TX:t=P:problem=mixed beam	!	!	!	!	!	!	!	!	!
8B-\L	.	8B-\	-tus	8d\	-tus	8g\	-tus	8dd\	-tus
8G\	6	8G\	Rex	8e\	Rex	8g\	Rex	8ee\	Rex
8A\	4	8.A\	glo-	8.e\	Glo-	8.a\	glo-	8.cc#X\	Glo-
8AA/J	#	.	.	.	.	.	.	.	.
.	.	16A\	-ri-	16e\	-ri-	16a\	-ri-	16cc#\	-ri-
8D\	.	8D\	-ae	8d\	-ae	8a\	-ae	8dd\	-ae
8r	.	8r	.	8r	.	8a\	Re-	8ff\	Re-
4r	.	4r	.	4r	.	8g\	-gnet	8ee\	-gnet
.	.	.	.	.	.	8f\	et	8dd\	et
=12	=12	=12	=12	=12	=12	=12	=12	=12	=12
4r	.	4r	.	4r	.	8.e\	im-	8.cc#X\	im-
.	.	.	.	.	.	16e\	-pe-	16cc#\	-pe-
8r	.	8r	.	8r	.	8e\	-ret	8cc#\	-ret
!	!	!	!	!	!	!	!	!LO:LB:g=original	!
8C/	6	8C/	et	8e\	et	8a\	et	8ccn\	et
!	!	!	!	!	!	!LO:LB:g=original	!	!	!
8D/L	.	8D/	ʒy-	8f\	ʒi-	8a\	ʒi-	8dd\	ʒy-
8BBn/J	.	8BBn/	-ma-	8f\	-ma-	8bn\	-ma-	8dd\	-ma-
!LO:TX:t=P:problem=mixed beam	!	!	!	!	!	!	!	!	!
8E\L	4	8.E\	-sco-	8.e\	-sco-	8.g#X\	-sco-	8.bn\	-sco-
8EE/J	#	.	.	.	.	.	.	.	.
.	.	16E\	-ri-	16e\	-ri-	16g#\	-ri-	16b\	-ri-
!	!	!LO:LB:g=original	!	!LO:LB:g=original	!	!	!	!	!
=13	=13	=13	=13	=13	=13	=13	=13	=13	=13
!LO:TX:t=P:problem=mixed beam	!	!	!	!	!	!	!	!	!
8AA/L	.	8AA/	-ae	8e\	-ae	8a\	-ae	8cc#X\	-ae
8A\	#	8A\	tol-	8r	.	8e\	tol-	8cc#\	tol-
8A\	.	8A\	-lat	4r	.	8e\	-lat	8cc#\	-lat
8G\J	6	8G\	de	.	.	8e\	de	8cc#\	de
8F\L	6	8F\	me-	8r	.	4a\	me-	8.dd\	Me-
16G\L	.	16G\LL	.	8d\	tol-	.	.	.	.
16A\JJ	.	16A\JJ	.	.	.	.	.	16dd\	-di-
4B-\	.	4B-\	.	8d\	-lat	4f\	.	4dd\	-o
.	.	.	.	8d\	de	.	.	.	.
=14	=14	=14	=14	=14	=14	=14	=14	=14	=14
8E\L	.	8E\L	.	8.B-\	me-	4g\	.	4r	.
16F\L	.	16F\L	.	.	.	.	.	.	.
16G\JJ	.	16G\JJ	.	16B-\	-di-	.	.	.	.
4A\	#	4A\	.	4c#X\	-o	4a\	.	8r	.
.	.	.	.	.	.	.	.	8ee\	tol-
!LO:TX:t=P:problem=mixed beam	!	!	!	!	!	!	!	!	!
8F\L	6	8F\L	.	4d\	de	4a\	.	8ff\	-lat
8G\	6	8G\J	.	.	.	.	.	8dd\	de
8A\	#	8.A\	.	8.c#X\	me-	8.a\	.	8.ee\	Me-
8AA/J	.	.	.	.	.	.	.	.	.
.	.	16A\	-di-	16c#\	-di-	16a\	-di-	16ee\	-di-
=15	=15	=15	=15	=15	=15	=15	=15	=15	=15
4D\	#	4D\	-o	4d\	-o	4a\	-o	4dd\	-o
4D\	.	4D\	tol-	4d\	tol-	4a\	tol-	4ff#X\	tol-
4G\	-	4G\	-lat	4d\	-lat	4b-\	-lat	4gg\	-lat
!	!	!	!	!	!	!	!	!LO:LB:g=original	!
4D\	#	4D\	de	4d\	de	4a\	de	4ff#X\	de
=16	=16	=16	=16	=16	=16	=16	=16	=16	=16
*2\right	*	*	*	*	*	*	*	*	*
2G\	-4	4.G\	me-	4.d\	me-	4.b-X\	Me-	4.gg\	Me-
.	3	8G\	-di-	8d\	-di-	8b-\	-di-	8gg\	-di-
!LO:TX:t=P:problem=podwójna kreska taktowa, brak repetycji	!	!	!	!	!	!LO:TX:t=P:problem=podwójna kreska taktowa, brak repetycji	!	!	!
2D\	#	2D/	-o	2d\	-o	2a\	-o	2ff#X\	-o
!LO:LB:g=original	!	!LO:LB:g=original	!	!LO:LB:g=original	!	!LO:LB:g=original	!	!LO:LB:g=original	!
=17:|!	=17:|!	=17:|!	=17:|!	=17:|!	=17:|!	=17:|!	=17:|!	=17:|!	=17:|!
*M2/2	*	*M2/2	*	*M2/2	*	*M2/2	*	*M2/2	*
*met(c|)	*	*met(c|)	*	*met(c|)	*	*met(c|)	*	*met(c|)	*
*>C	*	*>C	*	*>C	*	*>C	*	*>C	*
!LO:TX:b:t=Acce[[n]]de	!	!LO:TX:b:t=Accede	!	!LO:TX:b:t=Accede	!	!	!	!	!
4F\	.	1r	.	1r	.	8r	.	8r	.
.	.	.	.	.	.	8a\	Ac-	8cc\	A[[a]][c]-
4r	.	.	.	.	.	8f\	-ce-	8a\	-ce-
.	.	.	.	.	.	8g\	-de	8b-\	-de
8F\L	.	.	.	.	.	8.a\	nun-	8.cc\	nun-
8G\	6	.	.	.	.	.	.	.	.
.	.	.	.	.	.	16g\	-ti-	16b-\	-ti-
8A\	6	.	.	.	.	8f\	-a	8a\	-a
8F\J	.	.	.	.	.	8a\	dic	8cc\	dic
=18	=18	=18	=18	=18	=18	=18	=18	=18	=18
!LO:TX:t=P:problem=mixed beam	!	!	!	!	!	!	!	!	!
8B-\L	.	2r	.	2r	.	(16b-\LL	a-	(16dd\LL	a-
.	.	.	.	.	.	16a\JJ)	.	16ee\JJ)	.
8G\	7	.	.	.	.	(16g\LL	-ve	8ff\	-ve
.	.	.	.	.	.	16f\JJ)	.	.	.
8c\	4	.	.	.	.	8.e\	co-	8.g/	co-
8C/J	3	.	.	.	.	.	.	.	.
.	.	.	.	.	.	16e\	-mi-	16g/	-mi-
!LO:TX:t=P:problem=mixed beam	!	!	!	!	!	!	!	!	!
8FF/L	.	8r	.	8r	.	8f\	-nus	8f/	-nus
8F\	.	8F\	Dic	8c\	Dic	8a\	dic	8r	.
8E\	6	8E\	ple-	8c\	ple-	8g\	ple-	4r	.
8D\J	6	8D\	-na	8d\	-na	8f\	-na	.	.
=19	=19	=19	=19	=19	=19	=19	=19	=19	=19
4C/	.	8.C/	gra-	8.e\	gra-	8.g\	gra-	4r	.
.	.	16C/	-ti-	16e\	-ti-	16g\	-ti-	.	.
8r	.	8C/	-â	8e\	-â	8g\	-a	8r	.
8C/	.	8C/	dic	8e\	dic	8g\	dic	8cc\	dic
!LO:TX:t=P:problem=mixed beam	!	!	!	!	!	!LO:LB:g=original	!	!	!
8F\L	6 n4	8F\	te-	8f\	te-	8a\	te-	8dd\	te-
8D\	7	8D\	-cu(m)	8f\	-cu(m)	8a\	-cum	8dd\	-cum
!	!	!	!	!	!	!	!	!LO:LB:g=original	!
8G\	4	8.G\	Do-	8.Bn\	do-	8.g\	Do-	8dd\	Do-
8GG/J	3	.	.	.	.	.	.	8dd\	-mi-
.	.	16GG/	-mi-	16B\	-mi-	16g\	-mi-	.	.
=20	=20	=20	=20	=20	=20	=20	=20	=20	=20
4C/	.	4C/	-nus	4c\	-nus	4g\	-nus	4ee\	-nus
8r	.	8r	.	8r	.	8r	.	4r	.
8C/	.	8C/	et	8c\	et	8g\	et	.	.
4D\	-6	4D\	dic	4B-X\	dic	4f\	dic	2r	.
4E\	6	4E\	nè	4c\	ne	4g\	nè	.	.
!	!	!LO:LB:g=original	!	!	!	!	!	!	!
=21	=21	=21	=21	=21	=21	=21	=21	=21	=21
8.F\L	n	8.F\	ti-	8.c\	ti-	8.a\	ti-	4r	.
16F\K	.	16F\	-me-	16c\	-me-	16a\	-me-	.	.
!	!	!	!	!LO:LB:g=original	!	!	!	!	!
8F\J	.	8F\	-as	8c\	-as	8a\	-as	8r	.
!	!	!	!	!	!	!	!	!LO:TX:b:t=P:tekst:problem= e poprawione na Ne	!
8r	.	8r	.	8r	.	8g\	nè	8ee\	Ne
4r	.	4r	.	4r	.	8.a\	ti-	8.ff\	ti-
.	.	.	.	.	.	16a\	-me-	16ff\	-me-
8r	.	8r	.	8r	.	4a\	-as	4ff\	-as
8AA/	6	8AA/	et	8f\	et	.	.	.	.
=22	=22	=22	=22	=22	=22	=22	=22	=22	=22
4BB-/	.	4BB-/	dic	4d\	dic	2r	.	2r	.
4C/	.	4C/	nè	4c\	nè	.	.	.	.
8.D\L	n	8.D\	ti-	8.B-\	ti-	4r	.	4r	.
16D\K	.	16D\	-me-	16B-\	-me-	.	.	.	.
8D\J	.	8D\	-as	8B-\	-as	8r	.	8r	.
8r	.	8r	.	8r	.	8a\	nè	8cc\	nè
=23	=23	=23	=23	=23	=23	=23	=23	=23	=23
2r	.	2r	.	2r	.	8.b-\	ti-	8.dd\	ti-
.	.	.	.	.	.	16b-\	-me-	16dd\	-me-
.	.	.	.	.	.	4b-\	-as	4dd\	-as
4r	.	4r	.	8r	.	4r	.	4r	.
.	.	.	.	8r	.	.	.	.	.
4BBn/	.	4BBn/	nè	4Bn\	nè	4g\	nè	4dd\	nè
!	!	!	!	!	!	!LO:LB:g=original	!	!	!
=24	=24	=24	=24	=24	=24	=24	=24	=24	=24
2C/	4	4.C/	ti-	4.c\	ti-	4.g\	ti-	4.ee\	ti-
.	3	8C/	-me-	8c\	-me-	8g\	-me-	8ee\	-me-
!LO:TX:t=P:problem=podwójna kreska taktowa, brak repetycji	!	!	!	!	!	!	!	!	!
2FF/	.	2FF/	-as	2c\	-as.	2a\	-as.	2ff\	-as
!LO:LB:g=original	!	!LO:LB:g=original	!	!LO:LB:g=original	!	!LO:LB:g=original	!	!LO:LB:g=original	!
=25:|!	=25:|!	=25:|!	=25:|!	=25:|!	=25:|!	=25:|!	=25:|!	=25:|!	=25:|!
*M2/2	*	*M2/2	*	*M2/2	*	*M2/2	*	*M2/2	*
*met(c|)	*	*met(c|)	*	*met(c|)	*	*met(c|)	*	*met(c|)	*
*>D	*	*>D	*	*>D	*	*>D	*	*>D	*
!LO:TX:b:t=Qvi nobis	!	!	!	!	!	!	!	!	!
8F\	.	8F\	Qvi	8f\	Qvi	8a-X\	Qvi	8cc\	Qvi
=26	=26	=26	=26	=26	=26	=26	=26	=26	=26
!	!	!	!	!	!	!LO:SIC:v:s=4a-	!	!	!
4A-X\	6	4A-X\	no-	4f\	no-	4a\	no-	4cc\	no-
!	!	!	!	!	!	!LO:SIC:v:s=4a-	!	!	!
4F\	-	4F\	-bis	4f\	-bis	4a\	-bis	4cc\	-bis
4c\	.	8.c\	tri-	8.en\	tri-	8.g\	tri-	8.cc\	tri-
.	.	16c\	-bu-	16e\	-bu-	16g\	-bu-	16cc\	-bu-
8c\L	.	8c\	-at	8e\	-at	8g\	-at	8cc\	-at
8B-\J	6	8B-\	pec-	8e\	pec-	8g\	pec-	8b-\	pec-
=27	=27	=27	=27	=27	=27	=27	=27	=27	=27
4A-X\	6	4A-X\	-ca-	4f\	-ca-	4a-X\	-ca-	4cc\	-ca-
4D-X\	3	8D-X\	.	4f\	-ti	4a-\	-ti	4dd-X\	-ti
.	6	8D-\	-ti	.	.	.	.	.	.
!	!	!LO:SIC:v:s=4.E-	!	!	!	!	!	!	!
4.E-X\	4	4.E\	ve-	4.e-X\	ve-	4.g\	ve-	4.b-\	ve-
!	!	!LO:SIC:v:s=8E-	!	!	!	!	!	!	!
8E-\	3	8E\	-ni-	8e-\	-ni-	8g\	-ni-	8b-\	-ni-
=28	=28	=28	=28	=28	=28	=28	=28	=28	=28
8AA-X/	.	8AA-X/	-am	16f\LL	-am	8a-X\	-am	8cc\	-am
!	!	!	!	!LO:SIC:v:s=16e-	!	!	!	!	!
.	.	.	.	16e\JJ	.	.	.	.	.
8r	.	8r	.	8r	.	8r	.	8ee-X\	re-
4r	.	4r	.	4r	.	4r	.	8ee-\	-a-
.	.	.	.	.	.	.	.	8dd-X\	-tus
8r	.	8r	.	8r	.	8r	.	8.cc\	de-
8A-X\L	6	8A-X\	re-	8c\	re-	8f\	re-	.	.
.	.	.	.	.	.	.	.	16cc\	-le-
8A-\	.	8A-\	-a-	8c\	-a-	8f\	-a-	8cc\	-at
8G\J	7	8G\	-tus	8c\	-tus	8f\	-tus	8r	.
!	!	!	!	!	!	!	!	!LO:LB:g=original	!
=29	=29	=29	=29	=29	=29	=29	=29	=29	=29
4F\	-6_	8.F\	de-	8.d-X\	de-	8.b-\	de-	8r	.
.	.	.	.	.	.	.	.	8ff\	et
.	.	16F\	-le-	16d-\	-le-	16b-\	-le-	.	.
!	!	!LO:LB:g=original	!	!	!	!	!	!	!
8F\	x	8F\	-at	8d-\	-at	8b-\	-at	8ff\	do-
!	!	!	!	!LO:LB:g=original	!	!	!	!	!
8r	.	8r	.	8r	.	8r	.	16gg\LL	-net
.	.	.	.	.	.	.	.	16ff\JJ	.
8r	.	8r	.	8r	.	8r	.	8.een\	pa-
8c\L	.	8c\	et	8c\	et	8g\	et	.	.
.	.	.	.	.	.	.	.	16ee\	-tri-
!	!	!	!	!	!	!LO:LB:g=original	!	!	!
8A-X\	6	8A-X\	do-	8c\	do-	8a-X\	do-	4ff\	-am
8F\J	.	8F\	-net	8c\	-net	8a-\	-net	.	.
=30	=30	=30	=30	=30	=30	=30	=30	=30	=30
!LO:TX:t=P:problem=mixed beam	!	!	!	!	!	!	!	!	!
8c\L	.	8.c\	pa-	8.c\	pa-	8.g\	Pa-	8.een\	pa-
8C/	.	.	.	.	.	.	.	.	.
.	.	16c\	-tri-	16c\	-tri-	16g\	-tri-	16ee\	-tri-
8C/	.	8c\	-am	8c\	-am	8g\	-am	8ee\	-am
8BB-/J	6	8B-\	in	8c\	in	8g\	in	8ee\	in
4AA-X/	6	4A-X\	ar-	4c\	Ar-	4a-X\	ar-	4ff\	ar-
4BB-/	.	4B-\	-ce	4d-X\	-ce	4a-\	-ce	4ff\	-ce
=31	=31	=31	=31	=31	=31	=31	=31	=31	=31
2C/	4	4.c\	Sy-	4.c\	Sy-	4.g\	Sy-	4.ee\	Sy-
.	3	8c\	-de-	8c\	-de-	8g\	-de-	8ee\	-de-
4FF/	.	4F\	-ru(m)	4c\	-rum	4an\	-rum	4ff\	-ru(m)
4F\	.	4F\	a-	4f\	a-	4an\	A-	4cc\	a-
!LO:LB:g=original	!	!	!	!	!	!	!	!	!
=32	=32	=32	=32	=32	=32	=32	=32	=32	=32
2F\	7 -4	4F\	-men	4f\	-men	4b-\	-men	4dd\	-men
.	6 3	4F\	A-	4f\	A-	4a\	.	4cc\	A-
.	5_ x_	.	.	.	.	.	.	.	.
2F\	X X	4.F\	.	4.f\	.	4.b-\	A-	4.dd\	.
.	.	8F\	.	8f\	.	8a\	.	8cc\	.
=33	=33	=33	=33	=33	=33	=33	=33	=33	=33
!LO:TX:t=P:problem=podwójna kreska taktowa, brak repetycji	!	!	!	!	!	!	!	!	!
1F	n	1F	-men.	1f	-men	1a	-men.	1cc	-men.
=:|!	=:|!	=:|!	=:|!	=:|!	=:|!	=:|!	=:|!	=:|!	=:|!
*-	*-	*-	*-	*-	*-	*-	*-	*-	*-
!!!system-decoration: [s1,s2,s3,s4]s5
!!!ENC: Marta Lawrence
!!!END: 2021-02-29
!!!ENC: Katarzyna Serwa
!!!END: 2021-02-19
